src/images/icons/logout-dropd.svg

<svg width="24" height="24" fill="none" xmlns="http://www.w3.org/2000/svg"><defs><clipPath id="a"><path transform="matrix(-1 0 0 1 24 0)" fill="#fff" fill-opacity="0" d="M0 0h24v24H0z"/></clipPath></defs><path fill="none" d="M24 0H0v24h24z"/><g clip-path="url(#a)"><path d="M4 12h9.5M6 15l-3-3 3-3m5-2V6c0-.54.21-1.04.58-1.42.38-.37.88-.58 1.42-.58h5c.53 0 1.03.21 1.41.58.37.38.59.88.59 1.42v12c0 .53-.22 1.03-.59 1.41-.38.37-.88.59-1.41.59h-5c-.54 0-1.04-.22-1.42-.59-.37-.38-.58-.88-.58-1.41v-1" stroke="#FAFAFA" stroke-width="1.5" stroke-linejoin="round"/></g></svg>

<svg width="24.000000" height="24.000000" viewBox="0 0 24 24" fill="none" xmlns="http://www.w3.org/2000/svg" xmlns:xlink="http://www.w3.org/1999/xlink">
	<desc>
			Created with Pixso.
	</desc>
	<defs>
		<clipPath id="clip78_1604">
			<rect id="Icon-logout" width="24.000000" height="24.000000" transform="matrix(-1 0 0 1 24 0)" fill="white" fill-opacity="0"/>
		</clipPath>
	</defs>
	<rect id="Icon-logout" width="24.000000" height="24.000000" transform="matrix(-1 0 0 1 24 0)" fill="#FFFFFF" fill-opacity="0"/>
	<g clip-path="url(#clip78_1604)">
		<path id="Vector" d="M4 12L13.5 12M6 15L3 12L6 9M11 7L11 6C11 5.46 11.21 4.96 11.58 4.58C11.96 4.21 12.46 4 13 4L18 4C18.53 4 19.03 4.21 19.41 4.58C19.78 4.96 20 5.46 20 6L20 18C20 18.53 19.78 19.03 19.41 19.41C19.03 19.78 18.53 20 18 20L13 20C12.46 20 11.96 19.78 11.58 19.41C11.21 19.03 11 18.53 11 18L11 17" stroke="#FAFAFA" stroke-opacity="1.000000" stroke-width="1.500000" stroke-linejoin="round"/>
	</g>
</svg>
